svgs/regular/bus.svg

<svg xmlns="http://www.w3.org/2000/svg" viewBox="0 0 576 512"><!--! Font Awesome Pro 6.6.0 by @fontawesome - https://fontawesome.com License - https://fontawesome.com/license (Commercial License) Copyright 2024 Fonticons, Inc. --><path d="M363.7 96l97.5 0C445.4 78.9 399.2 48 288 48C185.8 48 133.8 78.3 115.5 96l96.8 0c5.5-9.6 15.9-16 27.7-16l96 0c11.8 0 22.2 6.4 27.7 16zM464 144l-152 0 0 80 152 0 0-80zm-352 0l0 80 152 0 0-80-152 0zm0 128l0 104c0 13.3 10.7 24 24 24l228.2 0 75.8 0c13.3 0 24-10.7 24-24l0-104-352 0zM74.2 70C99.9 38.7 167.8 0 288 0C416.6 0 478 38.6 502.4 70.6c7.5 9.8 9.6 20.9 9.6 29.9l0 27.6c17.7 0 32 14.3 32 32l0 64c0 17.7-14.3 32-32 32l0 120c0 25-12.7 47-32 59.9l0 52.1c0 13.3-10.7 24-24 24s-24-10.7-24-24l0-40-67.8 0L144 448l0 40c0 13.3-10.7 24-24 24s-24-10.7-24-24l0-52.1C76.7 423 64 401 64 376l0-120c-17.7 0-32-14.3-32-32l0-64c0-17.7 14.3-32 32-32l0-27.6C64 91.6 66 80 74.2 70zM176 304a32 32 0 1 1 0 64 32 32 0 1 1 0-64zm224 0a32 32 0 1 1 0 64 32 32 0 1 1 0-64z"/></svg>

<svg xmlns="http://www.w3.org/2000/svg" viewBox="0 0 576 512"><!--! Font Awesome Pro 6.4.0 by @fontawesome - https://fontawesome.com License - https://fontawesome.com/license (Commercial License) Copyright 2023 Fonticons, Inc. --><path d="M363.7 96h97.5C445.4 78.9 399.2 48 288 48C185.8 48 133.8 78.3 115.5 96h96.8c5.5-9.6 15.9-16 27.7-16l96 0c11.8 0 22.2 6.4 27.7 16zM464 144H312v80H464V144zm-352 0v80H264V144H112zm0 128V376c0 13.3 10.7 24 24 24H364.2 440c13.3 0 24-10.7 24-24V272H112zM74.2 70C99.9 38.7 167.8 0 288 0C416.6 0 478 38.6 502.4 70.6c7.5 9.8 9.6 20.9 9.6 29.9V128c17.7 0 32 14.3 32 32v64c0 17.7-14.3 32-32 32V376c0 25-12.7 47-32 59.9V488c0 13.3-10.7 24-24 24s-24-10.7-24-24V448H364.2 144v40c0 13.3-10.7 24-24 24s-24-10.7-24-24V435.9C76.7 423 64 401 64 376V256c-17.7 0-32-14.3-32-32V160c0-17.7 14.3-32 32-32V100.4C64 91.6 66 80 74.2 70zM176 304a32 32 0 1 1 0 64 32 32 0 1 1 0-64zm224 0a32 32 0 1 1 0 64 32 32 0 1 1 0-64z"/></svg>
